X:1
T:The Rare Oul' Times
M:4/4
L:1/4
K:C
 C3/2 E/2 G3/2 G/2| A G2 z| c3/2 d/2 e3/2 c/2| A2- A/2 z/2 c/2d/2|\
 c G G3/2 E/2| F2 G3/2 G/2| G G A B| G3 z/2 G/2| c3/2 d/2 e c| A2 G3/2 G/2|\
 c3/2 d/2 e c| a3 z/2 c/2| c3/2 G/2 G3/2 E/2| F/2 F3/2 z G/2E/2| D3E/2-D/2|\
 C3 z| C3/2 E/2 G G| A2 G z| z c/2d/2 e c| A3 c/2c/2| c3/2 G/2 G E|\
 F/2 F3/2 z G/2E/2| D3E/2-D/2| C4|
